app/assets/images/icons/active/caution.svg

<?xml version="1.0" encoding="UTF-8" standalone="no"?>
<svg width="32px" height="232px" viewBox="0 0 32 232" version="1.1" xmlns="http://www.w3.org/2000/svg" xmlns:xlink="http://www.w3.org/1999/xlink" xmlns:sketch="http://www.bohemiancoding.com/sketch/ns">
    <title>caution</title>
    <description>Created with Sketch (http://www.bohemiancoding.com/sketch)</description>
    <defs></defs>
    <g id="Graphics" stroke="none" stroke-width="1" fill="none" fill-rule="evenodd" sketch:type="MSPage">
        <path d="M30.4641289,186.623 C29.6234267,188.133 27.9562029,189 25.8868601,189 L6.11313993,189 C4.04582291,189 2.37657331,188.133 1.53587114,186.623 C0.69516897,185.113 0.849128885,183.258 1.9592609,181.534 L11.5594719,166.616 C12.6301011,164.953 14.2476931,164 15.9989871,164 C17.7502811,164 19.3698989,164.953 20.4405281,166.616 L30.0407391,181.534 C31.1508711,183.256 31.304831,185.113 30.4641289,186.623 C30.4641289,186.623 31.304831,185.113 30.4641289,186.623 L30.4641289,186.623 L30.4641289,186.623 Z M27.7050051,182.998 L18.1037812,168.08 C17.5264315,167.182 16.7606835,166.733 15.9989871,166.733 C15.2372907,166.733 14.4755943,167.182 13.8962188,168.08 L4.29499488,182.998 C3.13826973,184.797 3.95668822,186.266 6.11313993,186.266 L25.8868601,186.266 C28.0453376,186.266 28.8617303,184.797 27.7050051,182.998 C27.7050051,182.998 28.8617303,184.797 27.7050051,182.998 L27.7050051,182.998 L27.7050051,182.998 Z M16.0425416,180.074 C15.0630729,180.074 14.2699767,179.291 14.2699767,178.323 L14.2699767,172.283 C14.2699767,171.317 15.0630729,170.532 16.0425416,170.532 C17.0220102,170.532 17.8151064,171.317 17.8151064,172.283 L17.8151064,178.323 C17.8151064,179.291 17.0220102,180.074 16.0425416,180.074 L16.0425416,180.074 L16.0425416,180.074 L16.0425416,180.074 Z M17.8151064,182.807 C17.8151064,182.786 17.8110548,182.766 17.809029,182.744 C17.8110548,182.721 17.8151064,182.701 17.8151064,182.68 L17.8151064,182.807 L17.8151064,182.807 L17.8151064,182.807 L17.8151064,182.807 Z M16.0425416,184.43 C15.0873823,184.43 14.3115054,183.68 14.2760541,182.744 C14.3115054,181.807 15.0873823,181.057 16.0425416,181.057 C16.9977008,181.057 17.7735777,181.807 17.809029,182.744 C17.7735777,183.68 16.9977008,184.43 16.0425416,184.43 L16.0425416,184.43 L16.0425416,184.43 L16.0425416,184.43 Z M14.2699767,182.68 C14.2699767,182.701 14.2760541,182.721 14.2760541,182.744 C14.2760541,182.766 14.2699767,182.786 14.2699767,182.807 L14.2699767,182.68 L14.2699767,182.68 Z M14.2699767,182.68" id="caution--white" fill="#F95D5B" sketch:type="MSShapeGroup"></path>
        <path d="M30.4641289,146.623 C29.6234267,148.133 27.9562029,149 25.8868601,149 L6.11313993,149 C4.04582291,149 2.37657331,148.133 1.53587114,146.623 C0.69516897,145.113 0.849128885,143.258 1.9592609,141.534 L11.5594719,126.616 C12.6301011,124.953 14.2476931,124 15.9989871,124 C17.7502811,124 19.3698989,124.953 20.4405281,126.616 L30.0407391,141.534 C31.1508711,143.256 31.304831,145.113 30.4641289,146.623 C30.4641289,146.623 31.304831,145.113 30.4641289,146.623 L30.4641289,146.623 L30.4641289,146.623 Z M27.7050051,142.998 L18.1037812,128.08 C17.5264315,127.182 16.7606835,126.733 15.9989871,126.733 C15.2372907,126.733 14.4755943,127.182 13.8962188,128.08 L4.29499488,142.998 C3.13826973,144.797 3.95668822,146.266 6.11313993,146.266 L25.8868601,146.266 C28.0453376,146.266 28.8617303,144.797 27.7050051,142.998 C27.7050051,142.998 28.8617303,144.797 27.7050051,142.998 L27.7050051,142.998 L27.7050051,142.998 Z M16.0425416,140.074 C15.0630729,140.074 14.2699767,139.291 14.2699767,138.323 L14.2699767,132.283 C14.2699767,131.317 15.0630729,130.532 16.0425416,130.532 C17.0220102,130.532 17.8151064,131.317 17.8151064,132.283 L17.8151064,138.323 C17.8151064,139.291 17.0220102,140.074 16.0425416,140.074 L16.0425416,140.074 L16.0425416,140.074 L16.0425416,140.074 Z M17.8151064,142.807 C17.8151064,142.786 17.8110548,142.766 17.809029,142.744 C17.8110548,142.721 17.8151064,142.701 17.8151064,142.68 L17.8151064,142.807 L17.8151064,142.807 L17.8151064,142.807 L17.8151064,142.807 Z M16.0425416,144.43 C15.0873823,144.43 14.3115054,143.68 14.2760541,142.744 C14.3115054,141.807 15.0873823,141.057 16.0425416,141.057 C16.9977008,141.057 17.7735777,141.807 17.809029,142.744 C17.7735777,143.68 16.9977008,144.43 16.0425416,144.43 L16.0425416,144.43 L16.0425416,144.43 L16.0425416,144.43 Z M14.2699767,142.68 C14.2699767,142.701 14.2760541,142.721 14.2760541,142.744 C14.2760541,142.766 14.2699767,142.786 14.2699767,142.807 L14.2699767,142.68 L14.2699767,142.68 Z M14.2699767,142.68" id="caution--white" fill="#206FAC" sketch:type="MSShapeGroup"></path>
        <path d="M30.4641289,106.623 C29.6234267,108.133 27.9562029,109 25.8868601,109 L6.11313993,109 C4.04582291,109 2.37657331,108.133 1.53587114,106.623 C0.69516897,105.113 0.849128885,103.258 1.9592609,101.534 L11.5594719,86.616 C12.6301011,84.953 14.2476931,84 15.9989871,84 C17.7502811,84 19.3698989,84.953 20.4405281,86.616 L30.0407391,101.534 C31.1508711,103.256 31.304831,105.113 30.4641289,106.623 C30.4641289,106.623 31.304831,105.113 30.4641289,106.623 L30.4641289,106.623 L30.4641289,106.623 Z M27.7050051,102.998 L18.1037812,88.08 C17.5264315,87.182 16.7606835,86.733 15.9989871,86.733 C15.2372907,86.733 14.4755943,87.182 13.8962188,88.08 L4.29499488,102.998 C3.13826973,104.797 3.95668822,106.266 6.11313993,106.266 L25.8868601,106.266 C28.0453376,106.266 28.8617303,104.797 27.7050051,102.998 C27.7050051,102.998 28.8617303,104.797 27.7050051,102.998 L27.7050051,102.998 L27.7050051,102.998 Z M16.0425416,100.074 C15.0630729,100.074 14.2699767,99.291 14.2699767,98.323 L14.2699767,92.283 C14.2699767,91.317 15.0630729,90.532 16.0425416,90.532 C17.0220102,90.532 17.8151064,91.317 17.8151064,92.283 L17.8151064,98.323 C17.8151064,99.291 17.0220102,100.074 16.0425416,100.074 L16.0425416,100.074 L16.0425416,100.074 L16.0425416,100.074 Z M17.8151064,102.807 C17.8151064,102.786 17.8110548,102.766 17.809029,102.744 C17.8110548,102.721 17.8151064,102.701 17.8151064,102.68 L17.8151064,102.807 L17.8151064,102.807 L17.8151064,102.807 L17.8151064,102.807 Z M16.0425416,104.43 C15.0873823,104.43 14.3115054,103.68 14.2760541,102.744 C14.3115054,101.807 15.0873823,101.057 16.0425416,101.057 C16.9977008,101.057 17.7735777,101.807 17.809029,102.744 C17.7735777,103.68 16.9977008,104.43 16.0425416,104.43 L16.0425416,104.43 L16.0425416,104.43 L16.0425416,104.43 Z M14.2699767,102.68 C14.2699767,102.701 14.2760541,102.721 14.2760541,102.744 C14.2760541,102.766 14.2699767,102.786 14.2699767,102.807 L14.2699767,102.68 L14.2699767,102.68 Z M14.2699767,102.68" id="caution--subdued-grey" fill="#FFFFFF" sketch:type="MSShapeGroup"></path>
        <path d="M30.4641289,66.623 C29.6234267,68.133 27.9562029,69 25.8868601,69 L6.11313993,69 C4.04582291,69 2.37657331,68.133 1.53587114,66.623 C0.69516897,65.113 0.849128885,63.258 1.9592609,61.534 L11.5594719,46.616 C12.6301011,44.953 14.2476931,44 15.9989871,44 C17.7502811,44 19.3698989,44.953 20.4405281,46.616 L30.0407391,61.534 C31.1508711,63.256 31.304831,65.113 30.4641289,66.623 C30.4641289,66.623 31.304831,65.113 30.4641289,66.623 L30.4641289,66.623 L30.4641289,66.623 Z M27.7050051,62.998 L18.1037812,48.08 C17.5264315,47.182 16.7606835,46.733 15.9989871,46.733 C15.2372907,46.733 14.4755943,47.182 13.8962188,48.08 L4.29499488,62.998 C3.13826973,64.797 3.95668822,66.266 6.11313993,66.266 L25.8868601,66.266 C28.0453376,66.266 28.8617303,64.797 27.7050051,62.998 C27.7050051,62.998 28.8617303,64.797 27.7050051,62.998 L27.7050051,62.998 L27.7050051,62.998 Z M16.0425416,60.074 C15.0630729,60.074 14.2699767,59.291 14.2699767,58.323 L14.2699767,52.283 C14.2699767,51.317 15.0630729,50.532 16.0425416,50.532 C17.0220102,50.532 17.8151064,51.317 17.8151064,52.283 L17.8151064,58.323 C17.8151064,59.291 17.0220102,60.074 16.0425416,60.074 L16.0425416,60.074 L16.0425416,60.074 L16.0425416,60.074 Z M17.8151064,62.807 C17.8151064,62.786 17.8110548,62.766 17.809029,62.744 C17.8110548,62.721 17.8151064,62.701 17.8151064,62.68 L17.8151064,62.807 L17.8151064,62.807 L17.8151064,62.807 L17.8151064,62.807 Z M16.0425416,64.43 C15.0873823,64.43 14.3115054,63.68 14.2760541,62.744 C14.3115054,61.807 15.0873823,61.057 16.0425416,61.057 C16.9977008,61.057 17.7735777,61.807 17.809029,62.744 C17.7735777,63.68 16.9977008,64.43 16.0425416,64.43 L16.0425416,64.43 L16.0425416,64.43 L16.0425416,64.43 Z M14.2699767,62.68 C14.2699767,62.701 14.2760541,62.721 14.2760541,62.744 C14.2760541,62.766 14.2699767,62.786 14.2699767,62.807 L14.2699767,62.68 L14.2699767,62.68 Z M14.2699767,62.68" id="caution--body-grey" fill="#67737B" sketch:type="MSShapeGroup"></path>
        <path d="M30.4641289,26.623 C29.6234267,28.133 27.9562029,29 25.8868601,29 L6.11313993,29 C4.04582291,29 2.37657331,28.133 1.53587114,26.623 C0.69516897,25.113 0.849128885,23.258 1.9592609,21.534 L11.5594719,6.616 C12.6301011,4.953 14.2476931,4 15.9989871,4 C17.7502811,4 19.3698989,4.953 20.4405281,6.616 L30.0407391,21.534 C31.1508711,23.256 31.304831,25.113 30.4641289,26.623 C30.4641289,26.623 31.304831,25.113 30.4641289,26.623 L30.4641289,26.623 L30.4641289,26.623 Z M27.7050051,22.998 L18.1037812,8.08 C17.5264315,7.182 16.7606835,6.733 15.9989871,6.733 C15.2372907,6.733 14.4755943,7.182 13.8962188,8.08 L4.29499488,22.998 C3.13826973,24.797 3.95668822,26.266 6.11313993,26.266 L25.8868601,26.266 C28.0453376,26.266 28.8617303,24.797 27.7050051,22.998 C27.7050051,22.998 28.8617303,24.797 27.7050051,22.998 L27.7050051,22.998 L27.7050051,22.998 Z M16.0425416,20.074 C15.0630729,20.074 14.2699767,19.291 14.2699767,18.323 L14.2699767,12.283 C14.2699767,11.317 15.0630729,10.532 16.0425416,10.532 C17.0220102,10.532 17.8151064,11.317 17.8151064,12.283 L17.8151064,18.323 C17.8151064,19.291 17.0220102,20.074 16.0425416,20.074 L16.0425416,20.074 L16.0425416,20.074 L16.0425416,20.074 Z M17.8151064,22.807 C17.8151064,22.786 17.8110548,22.766 17.809029,22.744 C17.8110548,22.721 17.8151064,22.701 17.8151064,22.68 L17.8151064,22.807 L17.8151064,22.807 L17.8151064,22.807 L17.8151064,22.807 Z M16.0425416,24.43 C15.0873823,24.43 14.3115054,23.68 14.2760541,22.744 C14.3115054,21.807 15.0873823,21.057 16.0425416,21.057 C16.9977008,21.057 17.7735777,21.807 17.809029,22.744 C17.7735777,23.68 16.9977008,24.43 16.0425416,24.43 L16.0425416,24.43 L16.0425416,24.43 L16.0425416,24.43 Z M14.2699767,22.68 C14.2699767,22.701 14.2760541,22.721 14.2760541,22.744 C14.2760541,22.766 14.2699767,22.786 14.2699767,22.807 L14.2699767,22.68 L14.2699767,22.68 Z M14.2699767,22.68" id="caution--title-grey" fill="#3A434E" sketch:type="MSShapeGroup"></path>
    </g>
</svg>

<svg width="32" height="232" viewBox="0 0 32 232" xmlns="http://www.w3.org/2000/svg" xmlns:sketch="http://www.bohemiancoding.com/sketch/ns"><title>caution</title><g sketch:type="MSPage" fill="none"><path d="M30.464 186.623c-.841 1.51-2.508 2.377-4.577 2.377h-19.774c-2.067 0-3.737-.867-4.577-2.377-.841-1.51-.687-3.365.423-5.089l9.6-14.918c1.071-1.663 2.688-2.616 4.44-2.616 1.751 0 3.371.953 4.442 2.616l9.6 14.918c1.11 1.722 1.264 3.579.423 5.089zm-2.759-3.625l-9.601-14.918c-.577-.898-1.343-1.347-2.105-1.347s-1.523.449-2.103 1.347l-9.601 14.918c-1.157 1.799-.338 3.268 1.818 3.268h19.774c2.158 0 2.975-1.469 1.818-3.268zm-11.662-2.924c-.979 0-1.773-.783-1.773-1.751v-6.04c0-.966.793-1.751 1.773-1.751.979 0 1.773.785 1.773 1.751v6.04c0 .968-.793 1.751-1.773 1.751zm1.773 2.733l-.006-.063.006-.064v.127zm-1.773 1.623c-.955 0-1.731-.75-1.766-1.686.035-.937.811-1.687 1.766-1.687s1.731.75 1.766 1.687c-.035.936-.811 1.686-1.766 1.686zm-1.773-1.75l.006.064-.006.063v-.127zm0 0" id="caution--white" fill="#F95D5B" sketch:type="MSShapeGroup"/><path d="M30.464 146.623c-.841 1.51-2.508 2.377-4.577 2.377h-19.774c-2.067 0-3.737-.867-4.577-2.377-.841-1.51-.687-3.365.423-5.089l9.6-14.918c1.071-1.663 2.688-2.616 4.44-2.616 1.751 0 3.371.953 4.442 2.616l9.6 14.918c1.11 1.722 1.264 3.579.423 5.089zm-2.759-3.625l-9.601-14.918c-.577-.898-1.343-1.347-2.105-1.347s-1.523.449-2.103 1.347l-9.601 14.918c-1.157 1.799-.338 3.268 1.818 3.268h19.774c2.158 0 2.975-1.469 1.818-3.268zm-11.662-2.924c-.979 0-1.773-.783-1.773-1.751v-6.04c0-.966.793-1.751 1.773-1.751.979 0 1.773.785 1.773 1.751v6.04c0 .968-.793 1.751-1.773 1.751zm1.773 2.733l-.006-.063.006-.064v.127zm-1.773 1.623c-.955 0-1.731-.75-1.766-1.686.035-.937.811-1.687 1.766-1.687s1.731.75 1.766 1.687c-.035.936-.811 1.686-1.766 1.686zm-1.773-1.75l.006.064-.006.063v-.127zm0 0" fill="#206FAC" sketch:type="MSShapeGroup"/><path d="M30.464 106.623c-.841 1.51-2.508 2.377-4.577 2.377h-19.774c-2.067 0-3.737-.867-4.577-2.377-.841-1.51-.687-3.365.423-5.089l9.6-14.918c1.071-1.663 2.688-2.616 4.44-2.616 1.751 0 3.371.953 4.442 2.616l9.6 14.918c1.11 1.722 1.264 3.579.423 5.089zm-2.759-3.625l-9.601-14.918c-.577-.898-1.343-1.347-2.105-1.347s-1.523.449-2.103 1.347l-9.601 14.918c-1.157 1.799-.338 3.268 1.818 3.268h19.774c2.158 0 2.975-1.469 1.818-3.268zm-11.662-2.924c-.979 0-1.773-.783-1.773-1.751v-6.04c0-.966.793-1.751 1.773-1.751.979 0 1.773.785 1.773 1.751v6.04c0 .968-.793 1.751-1.773 1.751zm1.773 2.733l-.006-.063.006-.064v.127zm-1.773 1.623c-.955 0-1.731-.75-1.766-1.686.035-.937.811-1.687 1.766-1.687s1.731.75 1.766 1.687c-.035.936-.811 1.686-1.766 1.686zm-1.773-1.75l.006.064-.006.063v-.127zm0 0" fill="#fff" sketch:type="MSShapeGroup"/><path d="M30.464 66.623c-.841 1.51-2.508 2.377-4.577 2.377h-19.774c-2.067 0-3.737-.867-4.577-2.377-.841-1.51-.687-3.365.423-5.089l9.6-14.918c1.071-1.663 2.688-2.616 4.44-2.616 1.751 0 3.371.953 4.442 2.616l9.6 14.918c1.11 1.722 1.264 3.579.423 5.089zm-2.759-3.625l-9.601-14.918c-.577-.898-1.343-1.347-2.105-1.347s-1.523.449-2.103 1.347l-9.601 14.918c-1.157 1.799-.338 3.268 1.818 3.268h19.774c2.158 0 2.975-1.469 1.818-3.268zm-11.662-2.924c-.979 0-1.773-.783-1.773-1.751v-6.04c0-.966.793-1.751 1.773-1.751.979 0 1.773.785 1.773 1.751v6.04c0 .968-.793 1.751-1.773 1.751zm1.773 2.733l-.006-.063.006-.064v.127zm-1.773 1.623c-.955 0-1.731-.75-1.766-1.686.035-.937.811-1.687 1.766-1.687s1.731.75 1.766 1.687c-.035.936-.811 1.686-1.766 1.686zm-1.773-1.75l.006.064-.006.063v-.127zm0 0" fill="#67737B" sketch:type="MSShapeGroup"/><path d="M30.464 26.623c-.841 1.51-2.508 2.377-4.577 2.377h-19.774c-2.067 0-3.737-.867-4.577-2.377-.841-1.51-.687-3.365.423-5.089l9.6-14.918c1.071-1.663 2.688-2.616 4.44-2.616 1.751 0 3.371.953 4.442 2.616l9.6 14.918c1.11 1.722 1.264 3.579.423 5.089zm-2.759-3.625l-9.601-14.918c-.577-.898-1.343-1.347-2.105-1.347s-1.523.449-2.103 1.347l-9.601 14.918c-1.157 1.799-.338 3.268 1.818 3.268h19.774c2.158 0 2.975-1.469 1.818-3.268zm-11.662-2.924c-.979 0-1.773-.783-1.773-1.751v-6.04c0-.966.793-1.751 1.773-1.751.979 0 1.773.785 1.773 1.751v6.04c0 .968-.793 1.751-1.773 1.751zm1.773 2.733l-.006-.063.006-.064v.127zm-1.773 1.623c-.955 0-1.731-.75-1.766-1.686.035-.937.811-1.687 1.766-1.687s1.731.75 1.766 1.687c-.035.936-.811 1.686-1.766 1.686zm-1.773-1.75l.006.064-.006.063v-.127zm0 0" fill="#3A434E" sketch:type="MSShapeGroup"/></g></svg>
